Origami/64x64/apps/pdfchain.svg

<svg width="64" height="64" version="1" xmlns="http://www.w3.org/2000/svg">
 <rect transform="matrix(0,-1,-1,0,0,0)" x="-45" y="-44" width="40" height="40" rx="5.714" ry="5.714" style="opacity:.2"/>
 <rect transform="matrix(0,-1,-1,0,0,0)" x="-44" y="-44" width="40" height="40" rx="5.714" ry="5.714" style="fill:#2e72be"/>
 <rect transform="matrix(0,-1,-1,0,0,0)" x="-53" y="-52" width="40" height="40" rx="5.714" ry="5.714" style="opacity:.2"/>
 <rect transform="matrix(0,-1,-1,0,0,0)" x="-52" y="-52" width="40" height="40" rx="5.714" ry="5.714" style="fill:#459df7"/>
 <rect transform="matrix(0,-1,-1,0,0,0)" x="-61" y="-60" width="40" height="40" rx="5.714" ry="5.714" style="opacity:.2"/>
 <rect transform="matrix(0,-1,-1,0,0,0)" x="-60" y="-60" width="40" height="40" rx="5.714" ry="5.714" style="fill:#90c2fa"/>
 <path d="m39.004174 34.001564a13.660917 8.8537966 38.859039 0 0 -6.31175 3.473216 13.660917 8.8537966 38.859039 0 0 7.289484 15.547116 13.660917 8.8537966 38.859039 0 0 15.325668 -0.494128 13.660917 8.8537966 38.859039 0 0 -7.289484 -15.547116 13.660917 8.8537966 38.859039 0 0 -9.013918 -2.979088z" style="fill:#f34e51"/>
 <path d="m41.484414 39.003823a8.6019726 6.2458972 32.313125 0 1 3.718692 0.6563 8.6019726 6.2458972 32.313125 0 1 6.706144 9.304388 8.6019726 6.2458972 32.313125 0 1 -9.112356 3.377204 8.6019726 6.2458972 32.313125 0 1 -6.706144 -9.304392 8.6019726 6.2458972 32.313125 0 1 5.393664 -4.0335z" style="opacity:.2"/>
 <path d="m41.484414 38.003824a8.6019726 6.2458972 32.313125 0 1 3.718692 0.6563 8.6019726 6.2458972 32.313125 0 1 6.706144 9.304388 8.6019726 6.2458972 32.313125 0 1 -9.112356 3.377204 8.6019726 6.2458972 32.313125 0 1 -6.706144 -9.304392 8.6019726 6.2458972 32.313125 0 1 5.393664 -4.0335z" style="fill:#ffffff"/>
 <path d="m28 32.981889 11 9" style="fill:none;opacity:.2;stroke-linecap:round;stroke-linejoin:round;stroke-width:4;stroke:#000000"/>
 <path d="m28 32 11 9" style="fill:none;stroke-linecap:round;stroke-linejoin:round;stroke-width:4;stroke:#f34e51"/>
 <path d="M 9.7148438 4 C 6.5491295 4 4 6.5491295 4 9.7148438 L 4 10.714844 C 4 7.5491294 6.5491295 5 9.7148438 5 L 38.285156 5 C 41.45087 5 44 7.5491293 44 10.714844 L 44 9.7148438 C 44 6.5491295 41.45087 4 38.285156 4 L 9.7148438 4 z" style="fill:#ffffff;opacity:.1"/>
 <path d="m17.714844 12c-3.165714 0-5.714844 2.54913-5.714844 5.714844v1c0-3.165714 2.54913-5.714844 5.714844-5.714844h28.570312c3.165714 0 5.714844 2.54913 5.714844 5.714844v-1c0-3.165714-2.54913-5.714844-5.714844-5.714844h-28.570312z" style="fill:#ffffff;opacity:.1"/>
 <path d="m25.714844 20c-3.165714 0-5.714844 2.54913-5.714844 5.714844v1c0-3.165714 2.54913-5.714844 5.714844-5.714844h28.570312c3.165714 0 5.714844 2.54913 5.714844 5.714844v-1c0-3.165714-2.54913-5.714844-5.714844-5.714844h-28.570312z" style="fill:#ffffff;opacity:.1"/>
</svg>

<svg xmlns="http://www.w3.org/2000/svg" width="64" height="64" version="1">
 <rect style="opacity:0.2" width="40" height="40" x="-45" y="-44" rx="5.714" ry="5.714" transform="matrix(0,-1,-1,0,0,0)"/>
 <rect style="fill:#2e72be" width="40" height="40" x="-44" y="-44" rx="5.714" ry="5.714" transform="matrix(0,-1,-1,0,0,0)"/>
 <rect style="opacity:0.2" width="40" height="40" x="-53" y="-52" rx="5.714" ry="5.714" transform="matrix(0,-1,-1,0,0,0)"/>
 <rect style="fill:#459df7" width="40" height="40" x="-52" y="-52" rx="5.714" ry="5.714" transform="matrix(0,-1,-1,0,0,0)"/>
 <rect style="opacity:0.2" width="40" height="40" x="-61" y="-60" rx="5.714" ry="5.714" transform="matrix(0,-1,-1,0,0,0)"/>
 <rect style="fill:#90c2fa" width="40" height="40" x="-60" y="-60" rx="5.714" ry="5.714" transform="matrix(0,-1,-1,0,0,0)"/>
 <path style="fill:#f34e51" d="m 39.004174,34.001564 a 13.660917,8.8537966 38.859039 0 0 -6.31175,3.473216 13.660917,8.8537966 38.859039 0 0 7.289484,15.547116 13.660917,8.8537966 38.859039 0 0 15.325668,-0.494128 13.660917,8.8537966 38.859039 0 0 -7.289484,-15.547116 13.660917,8.8537966 38.859039 0 0 -9.013918,-2.979088 z"/>
 <path style="opacity:0.2" d="m 41.484414,39.003823 a 8.6019726,6.2458972 32.313125 0 1 3.718692,0.6563 8.6019726,6.2458972 32.313125 0 1 6.706144,9.304388 8.6019726,6.2458972 32.313125 0 1 -9.112356,3.377204 8.6019726,6.2458972 32.313125 0 1 -6.706144,-9.304392 8.6019726,6.2458972 32.313125 0 1 5.393664,-4.0335 z"/>
 <path style="fill:#ffffff" d="m 41.484414,38.003824 a 8.6019726,6.2458972 32.313125 0 1 3.718692,0.6563 8.6019726,6.2458972 32.313125 0 1 6.706144,9.304388 8.6019726,6.2458972 32.313125 0 1 -9.112356,3.377204 8.6019726,6.2458972 32.313125 0 1 -6.706144,-9.304392 8.6019726,6.2458972 32.313125 0 1 5.393664,-4.0335 z"/>
 <path style="opacity:0.2;fill:none;stroke:#000000;stroke-width:4;stroke-linecap:round;stroke-linejoin:round" d="m 28,32.981889 11,9"/>
 <path style="fill:none;stroke:#f34e51;stroke-width:4;stroke-linecap:round;stroke-linejoin:round" d="m 28,32 11,9"/>
 <path style="opacity:0.1;fill:#ffffff" d="M 9.7148438 4 C 6.5491295 4 4 6.5491295 4 9.7148438 L 4 10.714844 C 4 7.5491294 6.5491295 5 9.7148438 5 L 38.285156 5 C 41.45087 5 44 7.5491293 44 10.714844 L 44 9.7148438 C 44 6.5491295 41.45087 4 38.285156 4 L 9.7148438 4 z"/>
 <path style="opacity:0.1;fill:#ffffff" d="M 17.714844 12 C 14.54913 12 12 14.54913 12 17.714844 L 12 18.714844 C 12 15.54913 14.54913 13 17.714844 13 L 46.285156 13 C 49.45087 13 52 15.54913 52 18.714844 L 52 17.714844 C 52 14.54913 49.45087 12 46.285156 12 L 17.714844 12 z"/>
 <path style="opacity:0.1;fill:#ffffff" d="M 25.714844 20 C 22.54913 20 20 22.54913 20 25.714844 L 20 26.714844 C 20 23.54913 22.54913 21 25.714844 21 L 54.285156 21 C 57.45087 21 60 23.54913 60 26.714844 L 60 25.714844 C 60 22.54913 57.45087 20 54.285156 20 L 25.714844 20 z"/>
</svg>
